X:1
T:Polonaise
T:W A Mozart
%%score { 1 | ( 2 3 ) }
L:1/8
Q:1/4=90
M:3/4
K:F
V:1 treble nm="Piano"
V:2 bass 
V:3 bass 
V:1
!mp! .c !2!f2 (!4!a/g/) (!4!g/f/e/f/ | .c)!<(! !tenuto!!2!g2 (!4!b/a/) (!4!a/g/_g/=g/ | %2
 .a)(!2!a/!<)!f/!mf! .!3!b)(b/g/ !5!c'/!3!a/g/f/ | !3!e)!>(!(e/c/ .!4!f)(f/d/ !5!g/!3!e/d/!>)!c/ | %4
!mp! .c) !tenuto!!2!f2 (!4!a/g/) (!4!g/f/e/f/ | .c)!<(! !tenuto!!2!g2 (!4!b/a/) (!4!a/g/_g/=g/ | %6
 .a)(!2!a/f/ .!3!b)b/g/ .c'!<)!!f!.f | (!4!a/g/f/e/)!>(! (!2!e2 f2)!>)! :: %8
!p! (!2!g3/2a/4b/4 .c').f (!3!g/f/e/f/) | (!4!a/g/)(!4!g/f/) (!4!f/e/)(!3!e/d/) .e.!1!c | %10
!pp! (!2!g3/2a/4b/4 .c').f (!3!g/f/e/f/) |!>(! (!2!!4![fa]4!>)!!<(! !1!!3![eg]) z!<)! | %12
!mf! .c !tenuto!!2!f2 (!4!a/g/) (!4!g/f/e/f/ | .c)!<(! !tenuto!!2!g2 (!4!b/a/) (!4!a/g/_g/=g/ | %14
 !4!a)(!2!a/f/ .!3!b)(!3!b/g/ .c')!<)!!f!.f | (!4!a/g/f/e/)!>(! (!2!e2!>)! f2) :| %16
V:2
 !3!!5![F,A,]C [F,A,]C [F,A,]C | !5!!2![E,B,]C [E,B,]C [E,B,]C | %2
 !5!!3![F,A,]C !5!!4![F,G,]C [F,A,]C | !tenuto!!5!C,C !tenuto!!5!D,C !tenuto!!5!E,!1!!2![B,C] | %4
 !5!!3![F,A,]C [F,A,]C [F,A,]C | !5!!2![E,B,]C [E,B,]C [E,B,]C | !5!!3![F,A,]C !4!G,C !3!A,.[D,D] | %7
 .[B,,B,].!5![C,B,] (!5!!2!!1![C,G,B,]2 !3!!1![F,A,]2) :: (!2!B,2 !3!A,) z (!2!D2 | %9
 !3!!1![CE]2) z2 z2 | (!2!B,2 !3!A,) z !4!!1![D,_C]2 | C,C C,C C,/(C/!2!B,/!4!G,/ | %12
 !5!!3![F,A,])C [F,A,]C [F,A,]C | [E,B,]C [E,B,]C [E,B,]C | [F,A,]C G,C A,.[D,D] | %15
 .[B,,B,].[C,B,] ([C,G,B,]2 [F,A,]2) :| %16
V:3
 x6 | x6 | x6 | x6 | x6 | x6 | x6 | x6 :: !1!C4 x2 | x6 | !1!C4 x2 | x6 | x6 | x6 | x6 | x6 :| %16

